public/assets/img/material-icons/gpp_bad.svg

<svg height="24" viewBox="0 0 24 24" width="24" xmlns="http://www.w3.org/2000/svg"><path d="m12 2-8 3v6.09c0 5.05 3.41 9.76 8 10.91 4.59-1.15 8-5.86 8-10.91v-6.09zm3.5 12.09-1.41 1.41-2.09-2.08-2.09 2.08-1.41-1.41 2.09-2.09-2.09-2.09 1.41-1.41 2.09 2.09 2.09-2.09 1.41 1.41-2.08 2.09z"/></svg>

<svg xmlns="http://www.w3.org/2000/svg" width="24" height="24" viewBox="0 0 24 24"><path d="M12 2 4 5v6.09c0 5.05 3.41 9.76 8 10.91 4.59-1.15 8-5.86 8-10.91V5l-8-3zm3.5 12.09-1.41 1.41L12 13.42 9.91 15.5 8.5 14.09 10.59 12 8.5 9.91 9.91 8.5 12 10.59l2.09-2.09 1.41 1.41L13.42 12l2.08 2.09z"/></svg>
